X:32
T:Morgonstund har gull i mund
O:norway
C:anon.
Z:Transcribed by Frank Nordberg - http://www.musicaviva.com
M:3/4
L:1/4
Q:1/4=120
K:F
"F"A2A|"C"(c>d)c|"F"A2A|"F"c2F|
"Bb"F2F|"Gm"B2A|"F/C"A3|"C"C zC|
"G/B"(G>A)G|"C7"(GF)E|"F"F2A|"C"G zG|
"A"A2E|"Dm"(F>G)A|"Gm"B2"C"c|"F"A2"F7"A|
"Bb"d2d|"F"(c>B)A|"Gm7  C"G3|"F"F2 z|]
